packages/hms_room_kit/lib/src/assets/icons/hand_off.svg

<svg width="18" height="19" viewBox="0 0 18 19" fill="none" xmlns="http://www.w3.org/2000/svg">
<path fill-rule="evenodd" clip-rule="evenodd" d="M9.55322 1.12871C9.45131 1.12871 9.35041 1.14878 9.25626 1.18778C9.16211 1.22678 9.07657 1.28394 9.00451 1.356C8.93245 1.42805 8.87529 1.5136 8.8363 1.60774C8.7973 1.70189 8.77723 1.8028 8.77723 1.9047V5.03088C8.77723 5.03131 8.77723 5.03175 8.77723 5.03218C8.77723 5.03226 8.77723 5.03235 8.77723 5.03243C8.77709 5.34407 8.52438 5.59661 8.21274 5.59653C7.90111 5.59646 7.64851 5.34381 7.64851 5.03218V5.03192C7.64851 5.03162 7.64851 5.03131 7.64851 5.03101C7.64846 4.91888 7.63017 4.47116 7.59289 4.01933C7.57433 3.79432 7.55197 3.57992 7.5267 3.4132C7.51397 3.32917 7.50188 3.26666 7.49158 3.22515C7.49134 3.22422 7.49111 3.2233 7.49089 3.22241C7.40793 3.11298 7.29722 3.02729 7.16987 2.97446C7.02812 2.91566 6.87211 2.9002 6.72158 2.93006C6.57104 2.95991 6.43274 3.03373 6.32416 3.14217C6.10362 3.36243 5.74629 3.36221 5.52604 3.14168C5.30578 2.92115 5.306 2.56382 5.52653 2.34356C5.79306 2.07737 6.13253 1.89618 6.50202 1.8229C6.87151 1.74963 7.25443 1.78756 7.60237 1.9319C7.61785 1.93832 7.63323 1.94494 7.64851 1.95176V1.9047C7.64851 1.65457 7.69778 1.40689 7.7935 1.1758C7.88922 0.944715 8.02952 0.734743 8.20639 0.557875C8.38326 0.381007 8.59323 0.240707 8.82432 0.144987C9.05541 0.0492664 9.30309 0 9.55322 0C9.80335 0 10.051 0.0492664 10.2821 0.144987C10.5132 0.240707 10.7232 0.381007 10.9 0.557875C11.0769 0.734743 11.2172 0.944715 11.3129 1.1758C11.4087 1.40689 11.4579 1.65457 11.4579 1.9047V1.95237C11.6998 1.84446 11.9639 1.78713 12.2339 1.78713C12.7391 1.78713 13.2235 1.9878 13.5807 2.345C13.9379 2.7022 14.1386 3.18667 14.1386 3.69183V3.7395C14.3805 3.63158 14.6446 3.57426 14.9146 3.57426C15.4198 3.57426 15.9042 3.77493 16.2614 4.13213C16.6186 4.48933 16.8193 4.9738 16.8193 5.47896V13.0743C16.8193 14.0193 16.5936 14.941 16.172 15.7674L17.5476 17.143C17.768 17.3634 17.768 17.7207 17.5476 17.9411C17.3272 18.1615 16.9699 18.1615 16.7495 17.9411L15.5489 16.7406C15.405 16.9233 15.2498 17.0983 15.0837 17.2644C13.9724 18.3757 12.4652 19 10.8936 19H9.10643C9.0806 19 9.0548 18.9982 9.02922 18.9947C6.99921 18.7143 5.19884 17.6493 4.16571 16.0629C4.15521 16.0468 4.14554 16.0302 4.13674 16.0131L1.74243 11.3575C1.43713 10.9172 1.31281 10.3756 1.39656 9.84521C1.48274 9.29937 1.78223 8.81013 2.22914 8.48511C2.67604 8.16008 3.23376 8.02591 3.7796 8.11209C4.23631 8.1842 4.6534 8.40564 4.96782 8.73782V6.1595L0.665296 1.85698C0.444901 1.63659 0.444901 1.27926 0.665296 1.05886C0.885691 0.838466 1.24302 0.838466 1.46342 1.05886L15.3222 14.9177C15.5631 14.339 15.6906 13.7132 15.6906 13.0743V5.47896C15.6906 5.27316 15.6088 5.07578 15.4633 4.93025C15.3178 4.78473 15.1204 4.70297 14.9146 4.70297C14.7088 4.70297 14.5114 4.78473 14.3659 4.93025C14.2209 5.0752 14.1393 5.2716 14.1386 5.47652C14.1386 5.47733 14.1386 5.47815 14.1386 5.47896L14.1386 10.3936C14.1386 10.7052 13.886 10.9579 13.5743 10.9579C13.2626 10.9579 13.0099 10.7053 13.0099 10.3936L13.0099 5.48106C13.0099 5.48036 13.0099 5.47966 13.0099 5.47896C13.0099 5.47769 13.0099 5.47642 13.0099 5.47514L13.0099 3.69183C13.0099 3.48603 12.9281 3.28865 12.7826 3.14312C12.6371 2.9976 12.4397 2.91584 12.2339 2.91584C12.0613 2.91584 11.8946 2.97335 11.7595 3.07775C11.7568 3.09001 11.7538 3.10398 11.7507 3.11981C11.7274 3.23718 11.7033 3.40639 11.6797 3.6199C11.6327 4.04392 11.5922 4.59741 11.559 5.16255C11.4925 6.29538 11.4579 7.43181 11.4579 7.59296C11.4579 7.90464 11.2052 8.15731 10.8936 8.15731C10.5819 8.15731 10.3292 7.90464 10.3292 7.59296V1.9047C10.3292 1.8028 10.3091 1.70189 10.2701 1.60774C10.2311 1.5136 10.174 1.42805 10.1019 1.356C10.0299 1.28394 9.94432 1.22678 9.85018 1.18778C9.75603 1.14878 9.65512 1.12871 9.55322 1.12871ZM11.7762 3.01293C11.7816 2.99666 11.7822 2.99968 11.7757 3.0146C11.7759 3.01402 11.7761 3.01346 11.7762 3.01293ZM14.7439 15.9355L8.65681 9.84849C8.55348 9.97993 8.39303 10.0644 8.21287 10.0644C7.90118 10.0644 7.64851 9.81168 7.64851 9.5V8.8402L6.09653 7.28822V10.8403C6.09653 11.152 5.84386 11.4047 5.53218 11.4047C5.52524 11.4047 5.51834 11.4046 5.51147 11.4043C5.29847 11.4132 5.08953 11.3005 4.98562 11.0985L4.20362 9.57788C4.05509 9.39006 3.84101 9.26448 3.60356 9.22699C3.35342 9.18749 3.09782 9.24899 2.89301 9.39794C2.6882 9.54689 2.55095 9.7711 2.51146 10.0212C2.47196 10.2714 2.53345 10.527 2.6824 10.7318C2.69943 10.7552 2.71463 10.7799 2.72786 10.8056L5.1269 15.4704C5.9564 16.7274 7.42496 17.6236 9.14601 17.8713H10.8936C12.1658 17.8713 13.386 17.3659 14.2856 16.4663C14.4521 16.2998 14.6051 16.1223 14.7439 15.9355ZM7.48227 3.19256C7.48229 3.1925 7.48281 3.19383 7.48375 3.19676C7.48272 3.19409 7.48225 3.19262 7.48227 3.19256Z" fill="#EFF0FA"/>
</svg>

<svg xmlns="http://www.w3.org/2000/svg" width="18" height="19" fill="none" viewBox="0 0 18 19"><path fill="#EFF0FA" fill-rule="evenodd" d="M9.553 1.129a.776.776 0 0 0-.776.776v3.127a.564.564 0 0 1-1.128 0V5.03c0-.112-.019-.56-.056-1.012a10 10 0 0 0-.066-.606 2 2 0 0 0-.036-.19.776.776 0 0 0-1.167-.08.564.564 0 1 1-.797-.8 1.905 1.905 0 0 1 2.122-.391v-.047a1.905 1.905 0 0 1 3.809 0v.047a1.904 1.904 0 0 1 2.68 1.74v.047a1.904 1.904 0 0 1 2.681 1.74v7.595c0 .945-.225 1.867-.647 2.693l1.376 1.376a.564.564 0 1 1-.798.798l-1.201-1.2A5.93 5.93 0 0 1 10.894 19H9.106l-.077-.005c-2.03-.28-3.83-1.346-4.863-2.932l-.03-.05-2.394-4.656a2.084 2.084 0 0 1 3.226-2.62V6.16L.665 1.857a.564.564 0 1 1 .798-.798l13.86 13.859c.24-.579.368-1.205.368-1.844V5.48a.776.776 0 0 0-1.552-.002v4.917a.564.564 0 0 1-1.13 0V3.692a.776.776 0 0 0-1.25-.614l-.008.042a6 6 0 0 0-.071.5c-.047.424-.088.977-.121 1.543a69 69 0 0 0-.101 2.43.564.564 0 0 1-1.129 0V1.905a.776.776 0 0 0-.776-.776m2.223 1.884q.009-.022 0 .002zm2.968 12.923L8.657 9.848A.563.563 0 0 1 7.649 9.5v-.66L6.097 7.288v3.552a.564.564 0 0 1-.586.564.56.56 0 0 1-.525-.306l-.782-1.52a.955.955 0 0 0-1.522 1.154l.046.074 2.399 4.664c.83 1.257 2.298 2.154 4.019 2.401h1.748a4.8 4.8 0 0 0 3.85-1.935M7.482 3.193" clip-rule="evenodd"/></svg>
